src/basic/100/u25A5-columns.svg

<svg width="92" height="128" viewBox="0 0 92 128" fill="none" xmlns="http://www.w3.org/2000/svg">
<path fill-rule="evenodd" clip-rule="evenodd" d="M0 18H0.5H29.5005H30.0005V18.5V109.5V110H29.5005H0.5H0V109.5V18.5V18ZM1 19V109H29.0005V19H1ZM30.9998 18H31.4998H60.5003H61.0003V18.5V109.5V110H60.5003H31.4998H30.9998V109.5V18.5V18ZM31.9998 19V109H60.0003V19H31.9998ZM62.4995 18H61.9995V18.5V109.5V110H62.4995H91.5H92V109.5V18.5V18H91.5H62.4995ZM62.9995 109V19H91V109H62.9995Z" fill="black"/>
</svg>

<svg width="92" height="128" fill="none" xmlns="http://www.w3.org/2000/svg">
    <path fill-rule="evenodd" clip-rule="evenodd" d="M0 18h30v92H0V18Zm1 1v90h28V19H1Zm30-1h30v92H31V18Zm1 1v90h28V19H32Zm30.5-1H62v92h30V18H62.5Zm.5 91V19h28v90H63Z" fill="#000"/>
</svg>
